X: 14
T: Albanian #1    [G]
T: Punt\"etor\"et t\"e Ndertimit (the Construction Workers)
%info: line
Z: John Chambers <jc@trillian.mit.edu> http://trillian.mit.edu/~jc/music/
%Q: 3/8 2/8
M: 5/8
L: 1/8
K: G
|: DD \
| "G"[d2B] [dB] [ec][dB] | "Am"[c3A] [dB][dB] \
| "D7"[f2d] [fd] [ec][cA] | "G"[B3G] DD \
| [d2B] [dB] [dB][fd] | "Am"[e3c] [a/f][g/e][f/d][e/c] \
| "D7"[d2B] [dB] [dB][cA] | "G"[B3G] :|
|: [GB,][AC] \
| "G"[B2D] [BD] [cE][BD] | [cE][B2D] [GB,][AC] \
| [B2D] [cE] [d=F][dF] | "Am"[c3E] [cE][cE] \
| [c2E] [cE] [cE][cE] | "D7"[f2A] [fA] [fA][eG] \
| [d2F] [cE] [BD][AC] |1 "G"[B3D] :|2 "G"[G3B,] |]
|: [DB,][DB,] \
| "G"[G2D] [GD] [GD][AF] | [B2G] [BG] [BG][cA] \
| [d2B] [dB] [cA][BG] | "Am"[c3A] [AE][AE] \
| "D7"[G2E] [FD] [AF][AF] | [G2E] [FD] [AF][GE] \
| [F2D] [EC] [DB,][CA,] |1 "G"[D3B,] :|2 "G"[B,3G,] |]


